X: 35385
T: Ross Memorial Hospital, The
R: barndance
M: 4/4
K: Dmajor
def3ge2|dcd2 D2F2|A2 B2AGA2|D2G4 z2|
A2f3ge2|dcd2 D2F2|A2 B2 G2 cd|ef d4 z2||
def3ge2|dcd2 D2F2|A2 B2AGA2|D2G4 z2|
AGF2A2cd|efd2 D2F2|A2 B2 G2 cd|ef d4 z2||
efg3fB2-|Bcd3cA2|D2 B2AGA2|D2G4 z2|
efg3fB2-|Bcd3cA2|D2 B2 G2 cd|ef d4 z2||
efg3fB2-|Bcd3cA2|D2 B2AGA2|D2G4 z2|
AGF2A2cd|efd2 D2F2|A2 B2 G2 cd|ef d4 z2||

